X: 148117
T: FINGAL'S CAVE
Q: "Slow."
%R: air, march
B: James Kerr "Merry Melodies" v.1 p.48 s.1 #17
Z: 2016 John Chambers <jc:trillian.mit.edu>
M: 2/4
L: 1/16
K: Ador
|:\
vA4 (BA)GA | B2A2 A2(ed) |\
B2AG e2dB | d2(.G2 .G4) |\
vA4 (BA)GA | B2A2 A2(ed) |\
BBAG e2(dB) | e2(.A2 .A4) ::\
e2de g2fg | a2ea g2eg |\
e2de g2fg | (ed)BA G4 |
e2de g2fg | a2ea g2eg |\
(gefd) (gedB) | e2(.A2 .A4) |\
(3(efe)de g2fg | a2ea g2eg |\
e2de g2fg | (ed)BA (GABG) |\
c2Bc d2cd | e2de g2a2 |\
(gefd) (gedB) | e2A2 A4 |]

%%sep 1 1 500
%%sep 1 1 500

